X: 16912
T: Haunted Lighthouse, The
R: polka
M: 2/4
K: Aminor
|:GA ^GA|B/c/B/A/ G>E|GA ^GA|B/c/B/A/ G>E|
GA ^GA|B/c/B/A/ G>A|^GA Be|1 Bc/B/ A>E:|2 Bc/B/ A>B||
|:de ed/e/|ge ed/e/|ge e^d|eg e2|
de ed/e/|ge e^d|e>g ed|1 cB A>B:|2 cB A>E||

